X: 1244
T: The Mount in Lark
M:C|
L:1/8
R:Reel
B:O'Neill's 1244
N:No.2
N:Collected by Delaney
Z:Transcribed by Trish O'Neil
K:G
A>(G {A}(3GFG) AGFD | D>(G {A}(3GFG) AdcA | A>(G {A}(3GFG) AGFD | FEFG AdcA :|
d>g (3ggg a>g (3ggg | dggg fdcA | d>g (3ggg a>g (3ggg | dcde fdcA |
d>g (3ggg a>g (3ggg | dggef2fg | afge fdec | dcde fdcA |]


